X: 125
T: the Frolicksome Lasses
B: 204 Favourite Country Dances
N: Published by Straight & Skillern, London ca.1775
F: http://imslp.org/wiki/204_Favourite_Country_Dances_(Various) p.63 #125
Z: 2014 John Chambers <jc:trillian.mit.edu>
N: The last word of the title is partly missing; the more-readable title from the index is used.
N: Some partly-visible words of the dance description [bracketed] guessed from context.
M: C|
L: 1/8
K: F
% - - - - - - - - - - - - - - - - - - - - - - - - -
|: F/F/F Ac fafc | dBfA G/G/G G2 | F/F/F Ac fafc | dfcA F/F/F F2 :|
|: fefc     dfcA | BGdB G/G/G G2 | fefc     dfcB | AdcE F/F/F F2 :|
|: cAFA     cAFA | BGdB G/G/G G2 | fefc     dfcB | AdcA F/F/F F2 :|
|: FAFD     FAFD | BdcA G/G/G G2 | afge     fcdB | AFGA F/F/F F2 :|
% - - - - - - - - - - - - - - - - - - - - - - - - -
%%begintext align
%% Set to [the] 2d Lady and turn her .| the Lady turn the
%% 2d Man :| cross [over] 1 Cu. .|: lead up and cast off :|: set
%% corners and [turn] .|| [lead] [out]sides and turn :||:
%%endtext

%%sep 1 1 500
%%sep 1 1 500
